X: 26
T: Pan ogniem swojej światłości
C: Mikołaj Gomółka
%%abc-version 2.0
%%abcx-abcm2ps-target-version 5.9.1 (29 Sep 2008)
%%abc-creator hum2abc beta
%%abcx-conversion-date 2021/10/04 07:59:10
%%abc-edited-by Anna Matuszewska
%%abcx-initial-encoding-date 2020-06-02
%%humdrum-veritas 803773402
%%humdrum-veritas-data 147163220
%%linebreak <none>
%%barnumbers 0
L: 1/4
M: C|
N: Derived from pl-wn--sd-xvi-qu-273--027_gomolka-mikolaj--pan-ogniem-swojej-swiatlosci.krn
%%staves [1 2 3 4]
V: 1
V: 2 clef=alto
V: 3 clef=alto
V: 4
K: C
[V:1] G2>A2Bcd2 [I:setbarnb 3][|] 
[V:2] B,CDCB,A,/G,/A,2 [|] 
[V:3] G,A,B,CDEF2 [|] 
[V:4] G,4G,2D,2 [|] 
[V:1] B2>A2B2c4 [|] 
[V:2] G,2G4F2 [|] 
[V:3] G2>F2E2DC [|] 
[V:4] E,2>F,2G,2A,2 [|] 
[V:1] B2c2G2 [|] 
[V:2] G2>F2E2E2 [|] 
[V:3] D4C2C2 [|] 
[V:4] G,4C,2C,3 [|] 
[V:1] c4B2AG [|] 
[V:2] G4G2G2 [|] 
[V:3] E4D2D2 [|] 
[V:4] D,E,F,G,2F,E, [|] 
[V:1] AGG4F2 [|] 
[V:2] F2D2>C2A,2 [|] 
[V:3] CB,B,A,/G,/A,4 [|] 
[V:4] F,2G,2D,4 [|] 
[V:1] G2G2E2F2 [|] 
[V:2] B,2G,2A,B,C4 [|] 
[V:3] G,2B,2C2C2 [|] 
[V:4] G,2E,2A,2A,2 [|] 
[V:1] G4A2G2 [|] 
[V:2] B,2C2G,2 [|] 
[V:3] D4A,B,C4 [|] 
[V:4] G,4F,2E,2 [|] 
[V:1] F4E2G2 [|] 
[V:2] A,2F,2G,2E3 [|] 
[V:3] B,2C2C2 [|] 
[V:4] D,4C,2C,2 [|] 
[V:1] c2A2d3c [|] 
[V:2] DC2F2D2 [|] 
[V:3] G,2A,2A,2B,2 [|] 
[V:4] C,2F,2D,2G,3 [|] 
[V:1] BAG4F2 [|] 
[V:2] D2E2D3C [|] 
[V:3] B,2C2B,A,/G,/A,2 [|] 
[V:4] F,E,D,/C,/D,4 [|] 
[V:1] G8 [|] 
[V:2] B,8 [|] 
[V:3] G,8 [|] 
[V:4] G,8 [|] 


